;FLAVOR:Marlin
;TIME:6092
;Filament used: 3.30304m
;Layer height: 0.1
;MINX:67.207
;MINY:63.621
;MINZ:0.3
;MAXX:148.607
;MAXY:136.021
;MAXZ:15
;Generated with Cura_SteamEngine 4.1.0
M140 S60
M105
M190 S60
M104 S200
M105
M109 S200
M82 ;absolute extrusion mode
G21 ;metric values
G90 ;absolute positioning
M82 ;set extruder to absolute mode
M107 ;start with the fan off
G28 X0 Y0 ;move X/Y to min endstops
G28 Z0 ;move Z to min endstops
G1 Z15.0 F9000 ;move the platform down 15mm
G92 E0 ;zero the extruded length
G1 F200 E3 ;extrude 3mm of feed stock
G92 E0 ;zero the extruded length again
G1 F9000
;Put printing message on LCD screen
M117 Printing...
G92 E0
G92 E0
G1 F1500 E-6.5
;LAYER_COUNT:148
;LAYER:0
M107
G0 F3600 X70.453 Y67.257 Z0.3
;TYPE:SKIRT
G1 F1500 E0
G1 F1800 X70.832 Y66.878 E0.02674
G1 X71.378 Y66.416 E0.06242
G1 X71.443 Y66.362 E0.06664
G1 X72.149 Y65.796 E0.11178
G1 X72.573 Y65.509 E0.13733
G1 X72.984 Y65.276 E0.1609
G1 X73.033 Y65.249 E0.16369
G1 X73.465 Y65.014 E0.18822
G1 X73.512 Y64.989 E0.19088
G1 X74.13 Y64.666 E0.22567
G1 X74.631 Y64.456 E0.25277
G1 X75.522 Y64.169 E0.29947
G1 X75.603 Y64.144 E0.3037
G1 X76.316 Y63.935 E0.34077
G1 X76.855 Y63.826 E0.36821
G1 X77.849 Y63.713 E0.41812
G1 X77.926 Y63.706 E0.42197
G1 X78.621 Y63.644 E0.45679
G1 X78.806 Y63.633 E0.46603
G1 X79.065 Y63.625 E0.47896
G1 X79.164 Y63.623 E0.4839
G1 X136.2 Y63.621 E3.32944
G1 X136.248 Y63.621 E3.33183
G1 X136.783 Y63.629 E3.35853
G1 X136.98 Y63.638 E3.36836
G1 X138.111 Y63.725 E3.42496
G1 X138.22 Y63.736 E3.43042
G1 X138.849 Y63.806 E3.462
G1 X139.295 Y63.888 E3.48462
G1 X139.512 Y63.944 E3.4958
G1 X139.605 Y63.969 E3.50061
G1 X140.341 Y64.183 E3.53885
G1 X140.396 Y64.2 E3.54172
G1 X141.073 Y64.41 E3.57708
G1 X141.584 Y64.618 E3.60461
G1 X142.328 Y64.999 E3.64631
G1 X142.406 Y65.04 E3.6507
G1 X143.142 Y65.443 E3.69257
G1 X143.602 Y65.75 E3.72016
G1 X144.372 Y66.365 E3.76932
G1 X144.439 Y66.42 E3.77365
G1 X144.965 Y66.864 E3.80799
G1 X145.34 Y67.238 E3.83441
G1 X145.807 Y67.788 E3.87041
G1 X145.865 Y67.858 E3.87495
G1 X146.425 Y68.557 E3.91963
G1 X146.707 Y68.972 E3.94466
G1 X146.969 Y69.431 E3.97103
G1 X147.002 Y69.49 E3.9744
G1 X147.211 Y69.875 E3.99626
G1 X147.234 Y69.918 E3.99869
G1 X147.56 Y70.541 E4.03377
G1 X147.771 Y71.045 E4.06103
G1 X148.073 Y71.984 E4.11024
G1 X148.098 Y72.065 E4.11447
G1 X148.29 Y72.721 E4.14857
G1 X148.395 Y73.228 E4.1744
G1 X148.468 Y73.819 E4.20411
G1 X148.475 Y73.883 E4.20732
G1 X148.517 Y74.29 E4.22774
G1 X148.521 Y74.329 E4.22969
G1 X148.58 Y74.98 E4.2623
G1 X148.591 Y75.161 E4.27135
G1 X148.602 Y75.487 E4.28762
G1 X148.604 Y75.583 E4.29241
G1 X148.607 Y76.361 E4.33123
G1 X148.607 Y123.658 E6.69089
G1 X148.6 Y124.163 E6.71608
G1 X148.59 Y124.368 E6.72632
G1 X148.494 Y125.596 E6.78777
G1 X148.484 Y125.703 E6.79314
G1 X148.414 Y126.329 E6.82456
G1 X148.307 Y126.864 E6.85178
G1 X148.044 Y127.771 E6.8989
G1 X148.019 Y127.854 E6.90322
G1 X147.801 Y128.536 E6.93894
G1 X147.593 Y129.036 E6.96596
G1 X147.157 Y129.876 E7.01318
G1 X147.117 Y129.951 E7.01742
G1 X146.768 Y130.582 E7.05339
G1 X146.465 Y131.034 E7.08054
G1 X145.848 Y131.804 E7.12977
G1 X145.794 Y131.87 E7.13402
G1 X145.37 Y132.371 E7.16677
G1 X145.01 Y132.734 E7.19227
G1 X144.499 Y133.172 E7.22585
G1 X144.443 Y133.218 E7.22946
G1 X144.2 Y133.417 E7.24513
G1 X144.17 Y133.441 E7.24705
G1 X143.633 Y133.87 E7.28134
G1 X143.2 Y134.162 E7.3074
G1 X142.625 Y134.484 E7.34028
G1 X142.57 Y134.514 E7.3434
G1 X142.295 Y134.661 E7.35896
G1 X142.259 Y134.68 E7.36099
G1 X141.644 Y134.999 E7.39555
G1 X141.138 Y135.209 E7.42289
G1 X140.229 Y135.497 E7.47046
G1 X140.148 Y135.521 E7.47467
G1 X139.45 Y135.722 E7.51091
G1 X138.927 Y135.826 E7.53751
G1 X138.287 Y135.899 E7.56965
G1 X138.207 Y135.907 E7.57366
G1 X137.419 Y135.977 E7.61313
G1 X137.203 Y135.989 E7.62392
G1 X136.007 Y136.014 E7.68361
G1 X135.94 Y136.015 E7.68695
G1 X80.648 Y136.021 E10.44548
G1 X79.57 Y136.021 E10.49926
G1 X79.065 Y136.014 E10.52446
G1 X78.86 Y136.004 E10.5347
G1 X77.632 Y135.908 E10.59615
G1 X77.525 Y135.898 E10.60151
G1 X76.899 Y135.828 E10.63294
G1 X76.364 Y135.721 E10.66016
G1 X75.457 Y135.458 E10.70727
G1 X75.374 Y135.433 E10.71159
G1 X74.692 Y135.215 E10.74732
G1 X74.209 Y135.016 E10.77338
G1 X73.605 Y134.707 E10.80723
G1 X73.542 Y134.674 E10.81077
G1 X73.329 Y134.559 E10.82285
G1 X73.301 Y134.544 E10.82444
G1 X72.646 Y134.182 E10.86177
G1 X72.209 Y133.891 E10.88797
G1 X71.698 Y133.487 E10.92046
G1 X71.656 Y133.453 E10.92316
G1 X71.397 Y133.241 E10.93986
G1 X71.356 Y133.207 E10.94252
G1 X70.854 Y132.782 E10.97533
G1 X70.492 Y132.422 E11.0008
G1 X70.055 Y131.912 E11.03431
G1 X70.009 Y131.857 E11.03789
G1 X69.81 Y131.614 E11.05356
G1 X69.785 Y131.583 E11.05554
G1 X69.35 Y131.038 E11.09033
G1 X69.047 Y130.584 E11.11756
G1 X68.58 Y129.735 E11.16591
G1 X68.54 Y129.66 E11.17015
G1 X68.218 Y129.036 E11.20518
G1 X68.009 Y128.527 E11.23263
G1 X67.724 Y127.619 E11.28011
G1 X67.704 Y127.553 E11.28355
G1 X67.507 Y126.874 E11.31882
G1 X67.399 Y126.328 E11.34659
G1 X67.295 Y125.371 E11.39462
G1 X67.287 Y125.291 E11.39863
G1 X67.243 Y124.763 E11.42506
G1 X67.233 Y124.564 E11.435
G1 X67.208 Y123.372 E11.49448
G1 X67.207 Y123.305 E11.49783
G1 X67.207 Y75.955 E13.86013
G1 X67.215 Y75.439 E13.88587
G1 X67.224 Y75.246 E13.89551
G1 X67.31 Y74.117 E13.952
G1 X67.321 Y74.005 E13.95762
G1 X67.396 Y73.334 E13.9913
G1 X67.497 Y72.816 E14.01763
G1 X67.681 Y72.167 E14.05129
G1 X67.695 Y72.12 E14.05373
G1 X67.789 Y71.807 E14.07004
G1 X67.801 Y71.768 E14.07207
G1 X67.997 Y71.144 E14.1047
G1 X68.206 Y70.636 E14.13211
G1 X68.649 Y69.777 E14.18033
G1 X68.691 Y69.699 E14.18475
G1 X69.041 Y69.064 E14.22092
G1 X69.348 Y68.605 E14.24847
G1 X69.956 Y67.848 E14.29691
G1 X70.005 Y67.788 E14.30078
G1 X70.453 Y67.257 E14.33544
G1 F1500 E7.83544
;MESH:rascsi_pogo_holder.stl
G0 F3600 X72.344 Y68.936
G0 X73.336 Y69.75
G0 X80.482 Y73.925
G0 X80.408 Y73.991
;TYPE:WALL-INNER
G1 F1500 E14.33544
G1 F1800 X80.044 Y73.671 E14.35962
G1 X79.618 Y73.447 E14.38363
G1 X79.149 Y73.331 E14.40773
G1 X78.665 Y73.331 E14.43188
G1 X78.195 Y73.447 E14.45603
G1 X77.77 Y73.671 E14.48
G1 X77.407 Y73.99 E14.50411
G1 X77.132 Y74.389 E14.52829
G1 X76.96 Y74.842 E14.55246
G1 X76.903 Y75.321 E14.57653
G1 X76.96 Y75.8 E14.60059
G1 X77.132 Y76.252 E14.62472
G1 X77.406 Y76.65 E14.64883
G1 X77.768 Y76.971 E14.67296
G1 X78.195 Y77.195 E14.69702
G1 X78.665 Y77.311 E14.72117
G1 X79.149 Y77.311 E14.74532
G1 X79.618 Y77.195 E14.76942
G1 X80.045 Y76.971 E14.79348
G1 X80.408 Y76.649 E14.81769
G1 X80.681 Y76.252 E14.84173
G1 X80.853 Y75.801 E14.86581
G1 X80.911 Y75.321 E14.88993
G1 X80.853 Y74.841 E14.91405
G1 X80.681 Y74.39 E14.93813
G1 X80.408 Y73.991 E14.96225
G0 F3600 X80.482 Y73.925
G0 X80.891 Y74.832
G0 X80.891 Y75.81
G0 X79.415 Y78.12
G0 X74.279 Y78.193
G0 X74.237 Y98.491
G0 X74.307 Y98.421
G1 F1800 X78.868 Y98.421 E15.1898
G1 X79.6 Y98.509 E15.22658
G1 X80.254 Y98.757 E15.26148
G1 X80.824 Y99.151 E15.29605
G1 X81.291 Y99.679 E15.33122
G1 X81.615 Y100.296 E15.36598
G1 X81.781 Y100.97 E15.40061
G1 X81.781 Y101.672 E15.43564
G1 X81.615 Y102.346 E15.47027
G1 X81.291 Y102.963 E15.50504
G1 X80.824 Y103.491 E15.5402
G1 X80.254 Y103.884 E15.57475
G1 X79.6 Y104.132 E15.60964
G1 X78.868 Y104.221 E15.64643
G1 X74.307 Y104.221 E15.87398
G1 X74.307 Y121.421 E16.73209
G1 X78.758 Y121.421 E16.95415
G1 X79.553 Y121.499 E16.994
G1 X80.167 Y121.713 E17.02644
G1 X80.71 Y122.054 E17.05843
G1 X81.173 Y122.517 E17.0911
G1 X81.516 Y123.064 E17.12331
G1 X81.731 Y123.676 E17.15567
G1 X81.807 Y124.352 E17.18961
G1 X81.807 Y128.921 E17.41756
G1 X134.007 Y128.921 E20.02183
G1 X134.007 Y124.47 E20.24389
G1 X134.085 Y123.675 E20.28374
G1 X134.299 Y123.061 E20.31618
G1 X134.642 Y122.515 E20.34835
G1 X135.101 Y122.056 E20.38074
G1 X135.647 Y121.713 E20.41291
G1 X136.266 Y121.497 E20.44562
G1 X136.938 Y121.421 E20.47936
G1 X141.507 Y121.421 E20.7073
G1 X141.507 Y104.221 E21.56541
G1 X137.063 Y104.221 E21.78713
G1 X136.208 Y104.13 E21.83002
G1 X135.562 Y103.885 E21.86449
G1 X134.986 Y103.488 E21.89939
G1 X134.523 Y102.965 E21.93424
G1 X134.198 Y102.346 E21.96912
G1 X134.032 Y101.672 E22.00375
G1 X134.032 Y100.97 E22.03878
G1 X134.198 Y100.296 E22.07341
G1 X134.523 Y99.677 E22.10829
G1 X134.986 Y99.154 E22.14313
G1 X135.562 Y98.757 E22.17804
G1 X136.213 Y98.509 E22.21279
G1 X136.946 Y98.421 E22.24962
G1 X141.507 Y98.421 E22.47717
G1 X141.507 Y78.221 E23.48496
G1 X136.938 Y78.221 E23.7129
G1 X136.262 Y78.145 E23.74684
G1 X135.65 Y77.93 E23.7792
G1 X135.103 Y77.587 E23.81142
G1 X134.64 Y77.124 E23.84408
G1 X134.299 Y76.58 E23.87611
G1 X134.084 Y75.966 E23.90857
G1 X134.007 Y75.28 E23.94301
G1 X134.007 Y70.721 E24.17046
G1 X81.807 Y70.721 E26.77473
G1 X81.807 Y75.173 E26.99684
G1 X81.73 Y75.969 E27.03674
G1 X81.516 Y76.578 E27.06894
G1 X81.171 Y77.127 E27.10129
G1 X80.713 Y77.585 E27.1336
G1 X80.164 Y77.93 E27.16595
G1 X79.554 Y78.144 E27.1982
G1 X78.892 Y78.217 E27.23143
G1 X74.307 Y78.221 E27.46018
G1 X74.307 Y98.421 E28.46796
G0 F3600 X74.237 Y98.491
G0 X79.632 Y99.41
G0 X80.482 Y99.925
G0 X80.408 Y99.991
G1 F1800 X80.044 Y99.671 E28.49214
G1 X79.618 Y99.447 E28.51615
G1 X79.149 Y99.331 E28.54026
G1 X78.665 Y99.331 E28.5644
G1 X78.195 Y99.447 E28.58856
G1 X77.77 Y99.671 E28.61252
G1 X77.407 Y99.99 E28.63663
G1 X77.132 Y100.389 E28.66081
G1 X76.96 Y100.842 E28.68498
G1 X76.903 Y101.321 E28.70905
G1 X76.96 Y101.8 E28.73312
G1 X77.132 Y102.252 E28.75724
G1 X77.406 Y102.65 E28.78135
G1 X77.768 Y102.971 E28.80549
G1 X78.195 Y103.195 E28.82955
G1 X78.665 Y103.311 E28.8537
G1 X79.149 Y103.311 E28.87784
G1 X79.618 Y103.195 E28.90195
G1 X80.045 Y102.971 E28.926
G1 X80.408 Y102.649 E28.95021
G1 X80.681 Y102.252 E28.97425
G1 X80.853 Y101.801 E28.99833
G1 X80.911 Y101.321 E29.02245
G1 X80.853 Y100.841 E29.04657
G1 X80.681 Y100.39 E29.07066
G1 X80.408 Y99.991 E29.09478
G0 F3600 X80.482 Y99.925
G0 X80.891 Y100.832
G0 X80.482 Y103.686
G0 X74.279 Y104.193
G0 X74.279 Y121.449
G0 X79.302 Y121.854
G0 X80.482 Y122.925
G0 X80.408 Y122.991
G1 F1800 X80.044 Y122.671 E29.11896
G1 X79.618 Y122.447 E29.14297
G1 X79.149 Y122.331 E29.16707
G1 X78.665 Y122.331 E29.19122
G1 X78.195 Y122.447 E29.21537
G1 X77.77 Y122.671 E29.23934
G1 X77.407 Y122.99 E29.26345
G1 X77.132 Y123.389 E29.28762
G1 X76.96 Y123.842 E29.3118
G1 X76.903 Y124.321 E29.33586
G1 X76.96 Y124.8 E29.35993
G1 X77.132 Y125.252 E29.38406
G1 X77.406 Y125.65 E29.40816
G1 X77.768 Y125.971 E29.4323
G1 X78.195 Y126.195 E29.45636
G1 X78.665 Y126.311 E29.48051
G1 X79.149 Y126.311 E29.50466
G1 X79.618 Y126.195 E29.52876
G1 X80.045 Y125.971 E29.55282
G1 X80.408 Y125.649 E29.57703
G1 X80.681 Y125.252 E29.60106
G1 X80.853 Y124.801 E29.62515
G1 X80.911 Y124.321 E29.64927
G1 X80.853 Y123.841 E29.67339
G1 X80.681 Y123.39 E29.69747
G1 X80.408 Y122.991 E29.72159
G0 F3600 X80.482 Y122.925
G0 X81.768 Y124.354
G0 X81.779 Y128.949
G0 X134.035 Y128.949
G0 X134.424 Y122.925
G0 X136.661 Y122.292
G0 X137.584 Y122.398
G0 X138.482 Y122.925
G0 X138.408 Y122.991
G1 F1800 X138.044 Y122.671 E29.74577
G1 X137.618 Y122.447 E29.76978
G1 X137.149 Y122.331 E29.79389
G1 X136.665 Y122.331 E29.81803
G1 X136.195 Y122.447 E29.84218
G1 X135.77 Y122.671 E29.86615
G1 X135.407 Y122.99 E29.89026
G1 X135.132 Y123.389 E29.91444
G1 X134.96 Y123.842 E29.93861
G1 X134.903 Y124.321 E29.96268
G1 X134.96 Y124.8 E29.98674
G1 X135.132 Y125.252 E30.01087
G1 X135.406 Y125.65 E30.03498
G1 X135.768 Y125.971 E30.05912
G1 X136.195 Y126.195 E30.08317
G1 X136.665 Y126.311 E30.10733
G1 X137.149 Y126.311 E30.13147
G1 X137.618 Y126.195 E30.15558
G1 X138.045 Y125.971 E30.17963
G1 X138.408 Y125.649 E30.20384
G1 X138.681 Y125.252 E30.22788
G1 X138.853 Y124.801 E30.25196
G1 X138.911 Y124.321 E30.27608
G1 X138.853 Y123.841 E30.3002
G1 X138.681 Y123.39 E30.32428
G1 X138.408 Y122.991 E30.3484
G0 F3600 X138.482 Y122.925
G0 X141.535 Y121.449
G0 X141.535 Y104.193
G0 X138.482 Y99.925
G0 X138.408 Y99.991
G1 F1800 X138.044 Y99.671 E30.37258
G1 X137.618 Y99.447 E30.3966
G1 X137.149 Y99.331 E30.4207
G1 X136.665 Y99.331 E30.44485
G1 X136.195 Y99.447 E30.469
G1 X135.77 Y99.671 E30.49297
G1 X135.407 Y99.99 E30.51708
G1 X135.132 Y100.389 E30.54125
G1 X134.96 Y100.842 E30.56543
G1 X134.903 Y101.321 E30.58949
G1 X134.96 Y101.8 E30.61356
G1 X135.132 Y102.252 E30.63769
G1 X135.406 Y102.65 E30.66179
G1 X135.768 Y102.971 E30.68593
G1 X136.195 Y103.195 E30.70999
G1 X136.665 Y103.311 E30.73414
G1 X137.149 Y103.311 E30.75829
G1 X137.618 Y103.195 E30.78239
G1 X138.045 Y102.971 E30.80645
G1 X138.408 Y102.649 E30.83065
G1 X138.681 Y102.252 E30.85469
G1 X138.853 Y101.801 E30.87877
G1 X138.911 Y101.321 E30.9029
G1 X138.853 Y100.841 E30.92702
G1 X138.681 Y100.39 E30.9511
G1 X138.408 Y99.991 E30.97522
G0 F3600 X138.482 Y99.925
G0 X141.535 Y98.449
G0 X141.535 Y78.193
G0 X138.482 Y73.925
G0 X138.408 Y73.991
G1 F1800 X138.044 Y73.671 E30.9994
G1 X137.618 Y73.447 E31.02341
G1 X137.149 Y73.331 E31.04751
G1 X136.665 Y73.331 E31.07166
G1 X136.195 Y73.447 E31.09581
G1 X135.77 Y73.671 E31.11978
G1 X135.407 Y73.99 E31.14389
G1 X135.132 Y74.389 E31.16807
G1 X134.96 Y74.842 E31.19224
G1 X134.903 Y75.321 E31.21631
G1 X134.96 Y75.8 E31.24037
G1 X135.132 Y76.252 E31.2645
G1 X135.406 Y76.65 E31.28861
G1 X135.768 Y76.971 E31.31275
G1 X136.195 Y77.195 E31.3368
G1 X136.665 Y77.311 E31.36095
G1 X137.149 Y77.311 E31.3851
G1 X137.618 Y77.195 E31.4092
G1 X138.045 Y76.971 E31.43326
G1 X138.408 Y76.649 E31.45747
G1 X138.681 Y76.252 E31.48151
G1 X138.853 Y75.801 E31.50559
G1 X138.911 Y75.321 E31.52971
G1 X138.853 Y74.841 E31.55383
G1 X138.681 Y74.39 E31.57791
G1 X138.408 Y73.991 E31.60203
G0 F3600 X138.482 Y73.925
G0 X139.884 Y68.114
G0 X139.921 Y68.022
G1 F1800 X141.289 Y68.751 E31.67937
G1 X142.491 Y69.736 E31.7569
G1 X143.44 Y70.894 E31.83159
G1 X144.184 Y72.264 E31.90937
G1 X144.64 Y73.742 E31.98654
G1 X144.804 Y75.321 E32.06574
G1 X144.807 Y76.102 E32.1047
G1 X144.807 Y124.292 E34.50891
G1 X144.652 Y125.862 E34.58762
G1 X144.204 Y127.343 E34.66482
G1 X143.474 Y128.706 E34.74195
G1 X142.491 Y129.905 E34.81931
G1 X141.292 Y130.888 E34.89666
G1 X139.929 Y131.618 E34.9738
G1 X138.448 Y132.066 E35.05099
G1 X136.929 Y132.215 E35.12714
G1 X80.648 Y132.221 E37.93501
G1 X78.936 Y132.221 E38.02042
G1 X77.366 Y132.066 E38.09913
G1 X75.885 Y131.618 E38.17632
G1 X74.521 Y130.887 E38.25353
G1 X73.322 Y129.905 E38.33085
G1 X72.34 Y128.706 E38.40817
G1 X71.61 Y127.343 E38.48531
G1 X71.161 Y125.862 E38.56252
G1 X71.007 Y124.292 E38.64122
G1 X71.007 Y75.348 E41.08305
G1 X71.156 Y73.809 E41.16019
G1 X71.607 Y72.308 E41.23838
G1 X72.337 Y70.938 E41.31583
G1 X73.322 Y69.736 E41.39336
G1 X74.48 Y68.787 E41.46805
G1 X75.85 Y68.044 E41.54581
G1 X77.328 Y67.587 E41.62299
G1 X78.94 Y67.421 E41.70384
G1 X136.879 Y67.421 E44.59443
G1 X138.383 Y67.568 E44.66982
G1 X139.921 Y68.022 E44.74982
G0 F3600 X140.072 Y67.649
;TYPE:WALL-OUTER
G1 F1800 X141.512 Y68.417 E44.83125
G1 X142.775 Y69.452 E44.91271
G1 X143.775 Y70.672 E44.99141
G1 X144.553 Y72.105 E45.07276
G1 X145.034 Y73.663 E45.15411
G1 X145.204 Y75.298 E45.23612
G1 X145.207 Y76.102 E45.27623
G1 X145.207 Y124.311 E47.68139
G1 X145.046 Y125.942 E47.76316
G1 X144.575 Y127.498 E47.84426
G1 X143.809 Y128.928 E47.9252
G1 X142.775 Y130.189 E48.00655
G1 X141.514 Y131.223 E48.08791
G1 X140.084 Y131.989 E48.16885
G1 X138.528 Y132.46 E48.24995
G1 X136.948 Y132.615 E48.32916
G1 X80.648 Y132.621 E51.13798
G1 X78.917 Y132.621 E51.22434
G1 X77.286 Y132.46 E51.3061
G1 X75.73 Y131.989 E51.38721
G1 X74.299 Y131.223 E51.46819
G1 X73.038 Y130.189 E51.54955
G1 X72.004 Y128.928 E51.6309
G1 X71.239 Y127.498 E51.71181
G1 X70.767 Y125.942 E51.79294
G1 X70.607 Y124.311 E51.8747
G1 X70.607 Y75.33 E54.31837
G1 X70.762 Y73.731 E54.39852
G1 X71.236 Y72.155 E54.48062
G1 X72.003 Y70.715 E54.56202
G1 X73.038 Y69.452 E54.64349
G1 X74.258 Y68.452 E54.72219
G1 X75.691 Y67.675 E54.80351
G1 X77.249 Y67.193 E54.88488
G1 X78.918 Y67.021 E54.96858
G1 X136.898 Y67.021 E57.86122
G1 X138.462 Y67.174 E57.93962
G1 X140.072 Y67.649 E58.02337
G0 F3600 X140.248 Y67.743
G0 X140.012 Y68.183
G0 X138.518 Y73.976
G0 X138.106 Y74.258
G1 F1800 X137.816 Y74.003 E58.04263
